X:4
T:Untitled
T:from James E Frill's Musick Book  p. 4 bottom
N: Time signature assumed - not originally notated
Z:Sarah Gowan
R:Reel
M:4/4
L:1/8
K:D
d/B/ | AFED B,D [E2A,2] | DEFG AFGB | AFED B,D A,2| defd ef d2:|
defg abaf | gage fage | defg abaf | gafg ef d2|
defg abaf | gage B2 g2 | fded BdAF | EDEc d2d2|]
